X: 2243
T: The_Bog_of_Gight.   a Strathspey.
%R: strathspey, air
B: Niel Gow & Sons "Complete Repository" v.2 p.24 #3
Z: 2021 John Chambers <jc:trillian.mit.edu>
M: C|
L: 1/8
K: A
% - - - - - - - - - -
V: 1 staves=2
[|\
e>fe>c A>cA>E | (TF>E)FA B/B/B Bc | e>fe>c A<cA>E | F<AE>C A,/A,/A, A,2 || e>fec A>cA>E |
TF>EFA B/B/B TB>c | (c<e)(Tfe) (dc)(BA) | ~G>A~B>c A/A/A A2 |]| Ta>ba>e Ta>ba>e | (Tfef)a b/b/b b2 | (a>b)(a<e) f<ac<a |
(TB>A)Bc A/A/A A2 || Ta>ba>e a>ba>e | (f>efa) b/b/b b2 | a<ef<a e<fc<e | TB>ABc A/A/A A2 |]
% - - - - - - - - - -
% Voice 2 preserves the staff layout in the book.
V: 2 clef=bass middle=d
[|\
a2a2 c2c2 | d2d2 e2e2 | a2a2 c2c2 | d2e2 c2c2 || a2a2 c2c2 |
d2d2 e2e2 | a2a2 d2d2 | e2e2 A2A2 |]| a2a2 a2c2 | d2d2 e2e2 | a2c2 d2A2 |
e2E2 A2A2 || a2a2 c2c2 | d2d2 e2e2 | c2d2 c2A2 | e2E2 A2A2 |]


